src/icons/solid/symbols/international.svg

<svg width="24" height="24" viewBox="0 0 24 24" fill="none" xmlns="http://www.w3.org/2000/svg">
<g clip-path="url(#clip0_402_517)">
<path d="M7.21191 15.9189C7.60428 18.8471 8.41785 21.4881 9.6416 23C5.9704 22.1771 2.99041 19.469 1.70117 15.9189H7.21191ZM22.2998 15.9189C21.0107 19.469 18.0305 22.1769 14.3594 23C15.583 21.488 16.4051 18.8469 16.7881 15.9189H22.2998ZM15.377 15.9189C14.7884 20.0813 13.3407 22.8845 12.0049 22.8848C10.669 22.8848 9.22137 20.0815 8.63281 15.9189H15.377ZM7.0625 9.5166C6.99711 10.3491 6.95996 11.1723 6.95996 12.0049C6.95996 12.8374 6.99711 13.6702 7.0625 14.4932H1.28027C1.10279 13.6894 1.00001 12.8661 1 12.0049C1 11.1436 1.10278 10.3204 1.28027 9.5166H7.0625ZM15.5264 9.5166C15.6011 10.3109 15.6387 11.1436 15.6387 12.0049C15.6387 12.8757 15.5918 13.6989 15.5264 14.4932H8.46387C8.38914 13.6989 8.35254 12.8757 8.35254 12.0049C8.35254 11.1341 8.39847 10.3109 8.46387 9.5166H15.5264ZM22.7197 9.50684C22.8972 10.3106 23 11.1339 23 11.9951C23 12.8564 22.8972 13.6796 22.7197 14.4834H16.9375C17.0029 13.6509 17.04 12.8277 17.04 11.9951C17.04 11.1626 17.0029 10.3298 16.9375 9.50684H22.7197ZM9.65039 1C8.42669 2.51193 7.6047 5.15299 7.22168 8.08105H1.70117C2.9904 4.53107 5.96994 1.82298 9.65039 1ZM12.0049 1.11523C13.3313 1.11547 14.7796 3.91869 15.3682 8.08105H8.63281C9.22138 3.91859 10.6784 1.11523 12.0049 1.11523ZM14.3594 1C18.0304 1.82307 21.0101 4.53112 22.3086 8.08105H16.7881C16.3957 5.15307 15.583 2.51196 14.3594 1Z" fill="#212121"/>
</g>
<defs>
<clipPath id="clip0_402_517">
<rect width="24" height="24" fill="white"/>
</clipPath>
</defs>
</svg>

<svg xmlns="http://www.w3.org/2000/svg" width="24" height="24" fill="none" viewBox="0 0 24 24"><g clip-path="url(#a)"><path fill="currentColor" d="M7.212 15.919c.392 2.928 1.206 5.57 2.43 7.081-3.672-.823-6.652-3.531-7.94-7.081zm15.088 0c-1.29 3.55-4.27 6.258-7.94 7.081 1.223-1.512 2.045-4.153 2.428-7.081zm-6.923 0c-.589 4.162-2.036 6.965-3.372 6.966-1.336 0-2.784-2.804-3.372-6.966zM7.063 9.517a32 32 0 0 0-.103 2.488c0 .832.037 1.665.103 2.488H1.28A11.5 11.5 0 0 1 1 12.005c0-.861.103-1.685.28-2.488zm8.463 0c.075.794.113 1.627.113 2.488a30 30 0 0 1-.113 2.488H8.464a27 27 0 0 1-.111-2.488c0-.87.045-1.694.11-2.488zm7.194-.01c.177.804.28 1.627.28 2.488s-.103 1.685-.28 2.488h-5.782c.065-.832.102-1.655.102-2.488 0-.832-.037-1.665-.102-2.488zM9.65 1C8.427 2.512 7.605 5.153 7.222 8.081h-5.52C2.99 4.531 5.97 1.823 9.65 1m2.355.115c1.326 0 2.775 2.804 3.363 6.966H8.633c.588-4.162 2.045-6.966 3.372-6.966M14.359 1c3.671.823 6.651 3.531 7.95 7.081h-5.52c-.393-2.928-1.206-5.569-2.43-7.081"/></g><defs><clipPath id="a"><path fill="currentColor" d="M0 0h24v24H0z"/></clipPath></defs></svg>
